X: 11568
T: Edith Raitt's
R: jig
M: 6/8
K: Emajor
B|:E3 EGA|Bcd e3|c2a gfe|dBB BGF|
E3 EGA|Bcd edB|cag dBd|1 e3 e2B:|2 e3 e3||
|:gfe B3|GAB B3|gfe efg|age f3|
[1gfe B3|GAB B3|cag dBd|e3 e3:|
[2g3 BAG|ABc cde|cag dBd|e3 e3||

